X: 40002
T: Three Men Of Brittany, The
R: reel
M: 4/4
K: Dminor
DE (3FED CEGB|AD (3FED CGEG|Dddc (3ABA GB|ADEF GAcd|
(3ded ce dcAG|FAGF EDCE|DFEG FAGB|1 ADEC D3z:|2 ADEC D2GA||
Bcde fedc|daga g^fde|fddf geec|dag^c d2GA|
Bcde fedc|1 daga g^fde|fdd^c d^cA^F|GAG^F D2GA:|
[2 dcAG FEDC|DFEG FAGB|ADDC D3z||

